X:1
T:Per inhospiti boschi
T:Per inhospiti boschi
T:Girolamo Scotto
T:Source : Madrigali a tre voci---Venetia---G.Scotto---1541. Editor : André Vierendeels (14/08/16).
T:Notes : Original clefs :C2, C4, F4 Editorial accidentals above the staff Original note values have been halved Square bracket indicates ligature Madrigal in 2 parts "Tertii toni" 
T:©
T:©
T:©
T:©
T:©
T:©
T:©
C:Girolamo Scotto
Z:©
%%score [ 1 2 3 ]
L:1/8
Q:1/4=125
M:2/2
K:F
V:1 treble nm="Alto" snm="A"
V:2 treble-8 nm="Tenor" snm="T"
V:3 bass nm="Bass" snm="B"
V:1
 z8 | z8 | z8 | z8 | z4 E4 | E2 E2 F2 G2 | A3 G F2 E2- | E2 D2 E4- | E2 F4 ED | C2 A,3 B, C2- | %10
w: ||||Per|in- ho- spi- ti|bos- * * *|* * chi,|_ i- spi- *|di et _ _|
 CB, A,4 G,2 | A,8 | z8 | z4 z2 D2 | D2 D2 C2 C2 | D2 E2 F2 D2 | E2 F3 G A2 | D2 G4 E2- | %18
w: _ _ _ er-|mi,,||o-|ve rag- gi- o|di sol gia mai|non lu- * *|* ce, men|
 EDEF G2 G2 | F2 E3 D E2 | F2 C2 B,2 A,2- | A,2 G,2 A,4- | A,4 z2 A,2 | B,2 C2 D2 E2 | %24
w: _ _ _ _ vo so-|lin- go'a- * *|mor: ne d'al- tra|_ lu- ce,|_ pa-|sco que- st'oc- chi|
 F2 D3 C/B,/ C2 | D2 F2 F2 F2 |"^b" E2 G4 F2 |"^-natural" G2 D2 E2 F2 | G2 A4 G2 | A2 F2 E2 A2- | %30
w: mie- * * * *|i ba- gna- ti'e'n-|fer- * *|mi, ba- gna- ti'e'n-|fer- * *||
 AGFE D2 F2- | FE D4 C2 | B,4 A,4 | A,8 | C4 D4 | C4 A,3 B, | ^C8 || A,6 A,2 | C2 D2 E2 F2 | %39
w: * * * * mi, ba-|* * gna- ti'e'n-|fer- mi,|ba-|gna- ti'e'n-|fer- * *|mi.|Do- glio-|mi'et a ra- gio-|
 E2 A3 G F2 | E2 D2 EDCB, | A,2 G,3 A, B,2 | C3 D E2 F2- | FE/D/ E2 F2 B,2 | C2 D3 C C2- | %45
w: ne ho _ _|di do- ler- * * *|||* * * * mi, ho-|di do- * ler-|
 C2 B,2 C4 | z2 E2 E2 E2 | G2 A2 G2 F2 | E6 A2- | A2 G2 F2 E2- | E2 D2 E2 C2- | C2 D2 G,2 C2 | %52
w: * * mi,|che chi- gia|mi fu al ciel|si ca-|* * ra du-|* * ce, du-|* * ce, per|
 C2 C2 G,2 G,2 | B,3 A, G,2 C2- | C2 A,2 B,2 A,2- | A,B, C2 B,2 A,2- | A,2 G,2 A,4 | C4 C2 C2 | %58
w: te- ne- bro- se|val- * le hor|_ mi con du-||* * ce,|co- i de-|
 D2 C2 D2 E2 | F2 E3 D D2- | D2 C2 B,2 A,2- | A,2 G,2 A,2 D2 | D2 D2 D2 D2 | F2 C4 F2 | F2 F2 E4 | %65
w: sir fred- di'e le|spe- ran- za'in- cri-||* * me, dun-|que la- gri- me|mi- e, dun-|que so- spi-|
 D2 A3 G/F/ G2 | A8 | z2 A2 A2 A2 | D2 D2 F2 F2 | E2 E2 F2 DE | FG A4 G2 | A2 F4 C2 | C2 C2 D2 C2 | %73
w: |ri,|pre- ga- te'a-|mor ho- mai, che|per men pe- * *||na, v'as- ciu-|ghi'et spen- ga gli'oc-|
 D2 E2 F2 E2- | ED D4 C2 | B,2 A,4 G,2 | A,2 B,4 A,2 | B,4 A,4- | A,8 |] %79
w: chi'el pet- * *||to chiu- *|* * da,|chiu- da|_|
V:2
 z8 | z8 | A4 A2 A2 | c2 d2 c4 | B2 A3 G c2- | cBAG F2 c2- | c2 A3 B c2- | %7
w: ||Per in- ho-|spi- ti bos-|chi, i- spi- di|_ _ _ _ _ et|_ er- * *|
"^-natural" c2 BA G2 c2- | cB A4 G2 | A2 F4 E2 | E4 F2 D2 | E2 F4 ED | E2 A2 A2 A2 | G2 A3 GFE | %14
w: ||mi, i- spi-|di, et er-||mi, o- ve rag-|gio di _ _ _|
 DEFG A3 G | AB c4 B2 | c2 d3 c c2- | c2 B2 c4 | G4 z2 E2 | A2 A2 G2 G2 | F2 E2 D2 E2 | %21
w: _ _ _ _ _ _||* sol gia mai|_ non lu-|ce, men|vo so- lin- go'a-|mor: me d'al- tra|
 F2 ED E2 F2- | F2 E2 D2 F2 | G2 A2 F2 c2 | B2 A4 G2 | A2 d2 d2 d2 | G4 A4 | B4 A4 | c4 B4 | %29
w: lu- * * * *|* * ce, pa-|sco que- st'oc- chi|mie- * *|i ba- gna- ti'e'n-|fer- *|mi, ba-|gna- ti'e'n-|
 A2 d4 c2 | d2 A2 B2 c2 | d2 B3 A A2- | A2 G2 A2 F2 | F2 E2 F4 | E2 A4 G2 | A3 G F4 | E8 || z8 | %38
w: fer- * *|||* * mi, ba-|gna- ti'e'n- fer-|||mi.||
 z4 A4- | A2 A2 c2 d2 | c2 B2 A3 G | F2 E4 F2 | G2 A2 G2 B2- | B2 A4 G2 | A2 F4 E2 | D4 z2 E2 | %46
w: Do-|* glio- mi'et a|ra- gi- o- ne|ho- di do-|ler- * mi, ho-|* di do-|ler- * *|mi che|
 E2 E2 G2 A2 | G2 F2 E2 A2- | AB c4 F2- | F2 E2 F2 c2- | c2 BA G2 A2- | AG F4 E2 | F4 E4 | %53
w: chi- gia mi fu|al ciel si ca-|* * ra du-|* * ce, si|_ _ _ ca- *|* * * ra|du- ce,|
 z2 G2 E2 E2 | F2 F2 F4 | E4 F2 E2- | E2 D2 E4 | A4 A4- | A2 A2 F2 E2 | D2 G2 G2 G2 | E4 F3 E | %61
w: per te- ne-|bro- se val-|le, hor mi|_ con- du-|ce, co-|* i de- dir|fred- di'e spe- ran-|z'in- cri- *|
 D4 z2 G2 | G2 G2 B2 B2 | A4 A2 d2 | d2 d3 c/B/ c2 | dcBA B4 | A2 d2 d2 d2 | c2 c2 A2 d2 | %68
w: me, dun-|que la- gri- me|mi- e, dun-|que so- * * spi-||ri, pre- ga- te'a-|mor ho- mai, che|
 B2 B2 A3 G | AB c2 d2 B2- | B2 A2 B4 | A4 A4 | A6 A2 | F2 E2 D2 G2 | G2 G2 E4 | F2 E4 D2 | %76
w: per men pe- *||* * na,|v'as- ciu-|ghi'et spen-|* ga, et gli'oc-|chi el pet-|to [chiu- *|
"^#" E2 G4 F2 | G4 F4 | E8 |] %79
w: |da, chiu-|da].|
V:3
 A,,4 A,,2 A,,2 | C,2 D,2 E,4 | F,3 E, D,2 F,2- | F,2 E,D, E,2 F,2 | D,4 C,2 A,,2- | %5
w: Per in- ho-|spi- ti bos-|chi, _ _ per|_ in- ho- spi- ti|bos- * *|
 A,,B,, C,2 D,2 E,2 | F,3 E, D,2 C,2 | F,4 E,2 A,,2 | C,2 D,2 B,,4 | A,,2 D,4 C,2 | A,,2 C,2 B,,4 | %11
w: ||* chi, i-|spi- * di'et|er- mi, i-|spi- di'et er-|
 A,,2 D,2 D,2 D,2 | C,2 A,,2 D,4 | E,2 F,2 D,3 C, | B,,4 A,,2 F,2- | F,2 E,2 D,4 | C,2 B,,2 F,4 | %17
w: mi, o- ve rag-|gio di sol|gia mai non _|lu- ce, gia|_ _ mai|_ non lu-|
 G,4 C,4- | C,8 | z2 A,,2 C,2 C,2 | D,2 A,,2 B,,2 C,2 | B,,4 A,,2 D,2- | D,2 C,2 D,4 | %23
w: * ce,|_|men vo so-|lin- go'a- mor: ne|d'al- tra lu-|* * ce,|
 z2 A,,2 B,,2 A,,2 | D,2 D,2 _E,4 | D,2 B,,2 B,,2 B,,2 | C,2 _E,2 D,4 | G,4 z2 D,2 | E,2 F,2 G,4 | %29
w: pa- sco que-|st'oc- chi mie-|i ba- gna- ti'e'n-|fer- * *|mi, ba-|gna- ti'e'n- fer-|
 D,4 A,4 |"^-natural" D,4 z2 A,,2 | B,,C,D,E, F,4 | G,4 D,2 D,2- | D,2 C,2 D,4 | A,,4 B,,4 | A,,8 | %36
w: |mi, ba-|gna- * * * *|* ti'e'n- fer-||||
 A,,8 || z8 | z8 | z8 | z4 A,,4- | A,,2 C,2 C,2 D,2 | E,2 F,2 E,2 D,2- | D,2 C,2 B,,4 | %44
w: mi.||||Do-|* glio- mi'et a|ra- gi- o- ne,|_ ho- di|
 A,,2 B,,4 C,2 | G,,4 C,3 B,, | A,,4 z4 | z2 A,,2 C,2 D,2 | A,,6 A,,2 | B,,2 C,2 D,2 E,2 | %50
w: do- ler- *||mi,|che chi gia|mi fu|al cie, si ca-|
 F,4 E,2 F,2- | F,E, D,2 C,4 | z2 A,,2 C,2 C,2 | G,,2 G,,2 C,3 B,, | A,,2 D,2 D,2 D,2 | %55
w: * ra du-|* * * ce,|per te- ne-|bro- se val- *|le hor mi con|
 C,2 A,,2 D,2 C,2 | B,,4 A,,4 | F,4 F,2 F,2 | D,2 F,2 D,2 C,2 | B,,2 C,2 G,,4 | A,,4 D,3 C, | %61
w: du- ce'hor mi con|du- ce,|co- i de-|sir fred- di'e le|spe- ran- za'in-|cri- * *|
 B,,4 A,,2 G,,2 | G,,2 G,,2 G,2 G,2 | D,2 F,4 D,2 | D,2 D,2 A,4 | D,4 G,4 | D,4 z2 D,2 | %67
w: * me, dun-|que la- gri- me|mi- e, dun-|que so- spi-||ri, pre-|
 E,2 F,2 F,2 D,2 | G,2 D,2 D,2 D,2 | C,2 C,2 B,,G,, G,2 | D,2 D,2 G,4 | D,4 F,4 | F,2 F,2 D,2 F,2 | %73
w: ga- te'a- mor ho-|mai, che per men|pe- na, che _ per|men pe- na,|v'as- ciu-|ghi'et spen- ga, et|
 D,2 C,2 B,,2 C,2 | G,,4 A,,4 | D,2 C,2 B,,4 | A,,2 G,,2 D,4 | G,,4 D,4 | A,,8 |] %79
w: gli- oc- chiel pet-|to chiu|da, el pet-|* to chiu-|da, chiu-|da|

